icons/icn_texto.svg

<svg width="24" xmlns="http://www.w3.org/2000/svg" height="24" id="screenshot-7d3c7f0b-2e55-809a-8006-a15c6e670813" viewBox="0 0 24 24" xmlns:xlink="http://www.w3.org/1999/xlink" fill="none" version="1.1"><g id="shape-7d3c7f0b-2e55-809a-8006-a15c6e670813"><g class="frame-container-wrapper"><g class="frame-container-blur"><g class="frame-container-shadows"><g fill="none"><g class="fills" id="fills-7d3c7f0b-2e55-809a-8006-a15c6e670813"><rect rx="0" ry="0" x="0" y="0" width="24" height="24.000000000000455" transform="matrix(1, 0, 0, 1, 0, 0)" class="frame-background"/></g><g class="frame-children"><g id="shape-a692a29b-b9de-80cb-8006-a15bf8393aaf" rx="0" ry="0"><g id="shape-a692a29b-b9de-80cb-8006-a15ba359f142" style="opacity: 1;"><g class="fills" id="fills-a692a29b-b9de-80cb-8006-a15ba359f142"><path d="M11.376025199890137,4.595703125C10.938769340515137,4.595703125,10.547411918640137,4.866455078125,10.393359184265137,5.2752685546875L5.716113090515137,17.724853515625C5.658007621765137,17.87890625,5.679980278015137,18.052001953125,5.773241996765137,18.1876220703125C5.867480278015137,18.3232421875,6.021533012390137,18.4039306640625,6.186572074890137,18.4044189453125L7.792284965515137,18.4044189453125C8.226855278015137,18.4049072265625,8.612597465515137,18.127197265625,8.749072074890137,17.7147216796875L9.485400199890137,15.4923095703125L14.503222465515137,15.4923095703125L15.243212699890137,17.7147216796875C15.380908012390137,18.126708984375,15.766406059265137,18.4049072265625,16.200244903564453,18.4044189453125L17.815967559814453,18.4044189453125C17.980274200439453,18.4039306640625,18.134326934814453,18.32275390625,18.228321075439453,18.1871337890625C18.321582794189453,18.051513671875,18.342823028564453,17.87890625,18.284717559814453,17.724853515625L13.581591606140137,5.2752685546875C13.426562309265137,4.8660888671875,13.034228324890137,4.59521484375,12.596972465515137,4.595703125L12.084765434265137,4.595703125C12.058154106140137,4.599365234375,12.031298637390137,4.6048583984375,12.005419731140137,4.6123046875C11.960253715515137,4.6016845703125,11.914111137390137,4.59619140625,11.868945121765137,4.595703125ZM11.991503715515137,7.9415283203125L13.763232231140137,13.263916015625L10.225390434265137,13.263916015625Z" style="display: inline; font-weight: bold; font-size: 3.52777px; font-family: roboto; stroke-width: 0.924403; stroke-linejoin: round; fill: rgb(0, 0, 0); fill-opacity: 1;"/></g></g></g></g></g></g></g></g></g></svg>

<svg fill="none" viewBox="0 0 24 24"><g class="frame-container-wrapper"><g class="frame-container-blur"><g class="frame-container-shadows"><g class="fills"><rect width="24" height="24" class="frame-background" rx="0" ry="0"/></g><g class="frame-children"><path fill="#000" d="M11.376 4.5957a1.05 1.05 0 0 0-.9826.6796L5.716 17.7249a.5039.5039 0 0 0 .0571.4627.5046.5046 0 0 0 .4134.2168h1.6057a1.006 1.006 0 0 0 .9568-.6897l.7363-2.2224h5.0178l.74 2.2224c.1377.412.5232.6902.957.6897h1.6158a.504.504 0 0 0 .4123-.2173.5027.5027 0 0 0 .0564-.4622L13.5816 5.2753a1.0523 1.0523 0 0 0-.9846-.6796h-.5122a.569.569 0 0 0-.0794.0166.6283.6283 0 0 0-.1365-.0166Zm.6155 3.3458 1.7717 5.3224h-3.5378Z" class="fills" font-family="roboto" font-size="3.5278" font-weight="700"/></g></g></g></g></svg>
